X:2498
T:Canción (MQ 018)
C:Tradicional
S:Música Tradicional Asturiana, (C) Tello & Tito. Asturies, 2001.
S:http://pagina.de/MusTradAst <telloytito@asturies.org>
N:Típica pieza de gaita.
N:Es muy sencilla y repetitiva, muy propia para ejercitarse en el empleo del Lab y el Mib.
A:Asturies
Z:Manolo Quirós 018
M:4/4
L:1/8
Q:1/4=120
K:C
|C3 D E3 (3F/E/D/|E2 (7F/E/D/E/F/E/D/ E3 (3D/C/B,/|C4 C4|
E3 F G (3A/G/F/ GA|F (3G/F/E/ FG E (3F/E/D/ ED|CB, DB, C4|
[M:6/8]
|EEE EED|G2 F E3|EGF EDC|B,3 C3|
EEE EED|G2 F E3|CB,C DED|C6|
GGG GGF|_B2 _A G3|_E2 F G2 C|D_ED C3|
GGG GGF|_B2 _A G3|CB,D F2 D|B,2 D C3|


